img/icon/test-grey.svg

<svg width="22" height="22" viewBox="0 0 22 22" fill="none" xmlns="http://www.w3.org/2000/svg">
<path d="M13.1111 14.65V17.1111H15.8822C16.5611 17.1111 17.1122 16.5611 17.1111 15.8811C17.1111 15.2011 16.56 14.65 15.88 14.65H13.1111ZM13.1111 14.65V12.1111H15.57C16.2711 12.1111 16.84 12.68 16.84 13.3811C16.84 14.0822 16.2711 14.6511 15.57 14.6511M9.88889 9.88889L7.38889 4.88889L4.88889 9.88889M5.33 9.00667H9.44778M17.8422 21H4.15778C2.41333 21 1 19.5867 1 17.8422V4.15778C1 2.41333 2.41333 1 4.15778 1H17.8422C19.5867 1 21 2.41333 21 4.15778V17.8422C21 19.5867 19.5867 21 17.8422 21Z" stroke="#848E9F" stroke-width="1.5" stroke-linecap="round" stroke-linejoin="round"/>
</svg>

<svg width="22" height="22" fill="none" xmlns="http://www.w3.org/2000/svg"><path d="M13.111 14.65v2.461h2.771a1.231 1.231 0 0 0-.002-2.461h-2.769zm0 0v-2.539h2.459a1.27 1.27 0 0 1 0 2.54M9.889 9.89l-2.5-5-2.5 5m.441-.882h4.118M17.842 21H4.158A3.157 3.157 0 0 1 1 17.842V4.158A3.157 3.157 0 0 1 4.158 1h13.684A3.157 3.157 0 0 1 21 4.158v13.684A3.157 3.157 0 0 1 17.842 21z" stroke="#848E9F" stroke-width="1.5" stroke-linecap="round" stroke-linejoin="round"/></svg>
